web/workspace/public/assets/icons/white/expand.svg

<svg height="30" viewBox="0 0 30 30" width="30" xmlns="http://www.w3.org/2000/svg"><path d="m19 3v2h4.6l-6.6 6.6 1.4 1.4 6.6-6.6v4.6h2v-8zm-8 2v-2h-8v8h2v-4.6l6.6 6.6 1.4-1.4-6.6-6.6zm.6 12-6.6 6.6v-4.6h-2v8h8v-2h-4.6l6.6-6.6zm13.4 6.6-6.6-6.6-1.4 1.4 6.6 6.6h-4.6v2h8v-8h-2z" fill="#fff"/></svg>

<svg xmlns="http://www.w3.org/2000/svg" width="30" height="30" viewBox="0 0 30 30"><path d="M19 3v2h4.6L17 11.6l1.4 1.4L25 6.4V11h2V3h-8zm-8 2V3H3v8h2V6.4l6.6 6.6 1.4-1.4L6.4 5H11zm.6 12L5 23.6V19H3v8h8v-2H6.4l6.6-6.6-1.4-1.4zM25 23.6L18.4 17 17 18.4l6.6 6.6H19v2h8v-8h-2v4.6z" fill="#fff"/></svg>
